X:1
T:Love
T:Love
T:from Walt Disney's "Lady and the Tramp"
T:George Bruns Floyd Huddleston
C:George Bruns
Z:All Rights Reserved
L:1/4
M:4/4
K:C
V:1 treble 
%%MIDI program 0
V:1
"C" G3 G | A B c d | e3 B | A4 | E3 G |"Ebdim7" A B c d |"G7" B4- | B3 z | D3 E | F G A B | %10
w: Love, it|seems like on- ly|yes- ter-|day,|you were|just a child at|play.|_|Now you're|all grown up in-|
"Dm7" f3 c |"G7" B4 | G3 A | B c d c |"C" e4- |"Dm7" e3"G7" z |"C" G3 G | A B c d | e3 B | A4 | %20
w: side of|me.|Oh, how|fast those mo- ments|flee.|_|Once we|watched a la- zy|world go|by.|
"C7" E3 G | d2 c _B |"F" A4- | A3 z | d3 c |"Fm6" d3 c |"Cmaj7" B2 G"A9" B- | B4 |"Dm7" A3 F | %29
w: Now the|days seem to|fly.|_|Life is|brief, but|when it's gone,|_|Love goes|
"G7" B3 G |"C" c4- | c z z2 |] %32
w: on and|on.|_|

